mono-glyphs/library-w.svg

<svg xmlns="http://www.w3.org/2000/svg" width="1024" height="1024" fill="none" viewBox="0 0 1024 1024">
  <g clip-path="url(#a)">
    <path fill="#fff" d="M96 1024c-13 0-25.333-2.5-37-7.5-11.667-5-21.917-11.92-30.75-20.75C19.417 986.917 12.5 976.667 7.5 965c-5-11.667-7.5-24-7.5-37V96c0-13 2.5-25.333 7.5-37 5-11.667 11.917-21.917 20.75-30.75C37.083 19.417 47.333 12.5 59 7.5 70.667 2.5 83 0 96 0h64c13 0 25.333 2.5 37 7.5 11.667 5 21.917 11.917 30.75 20.75 8.833 8.833 15.75 19.083 20.75 30.75 5 11.667 7.5 24 7.5 37v832c0 13-2.5 25.333-7.5 37-5 11.667-11.917 21.917-20.75 30.75-8.833 8.83-19.083 15.75-30.75 20.75-11.667 5-24 7.5-37 7.5H96Zm320 0c-13 0-25.333-2.5-37-7.5-11.667-5-21.917-11.92-30.75-20.75-8.833-8.833-15.75-19.083-20.75-30.75-5-11.667-7.5-24-7.5-37V96c0-13 2.5-25.333 7.5-37 5-11.667 11.917-21.917 20.75-30.75C357.083 19.417 367.333 12.5 379 7.5c11.667-5 24-7.5 37-7.5h64c13 0 25.333 2.5 37 7.5 11.667 5 21.917 11.917 30.75 20.75 8.833 8.833 15.75 19.083 20.75 30.75 5 11.667 7.5 24 7.5 37v832c0 13-2.5 25.333-7.5 37-5 11.667-11.917 21.917-20.75 30.75-8.833 8.83-19.083 15.75-30.75 20.75-11.667 5-24 7.5-37 7.5h-64Zm-256-64c8.667 0 16.167-3.167 22.5-9.5 6.333-6.333 9.5-13.833 9.5-22.5V96c0-8.667-3.167-16.167-9.5-22.5-6.333-6.333-13.833-9.5-22.5-9.5H96c-8.667 0-16.167 3.167-22.5 9.5C67.167 79.833 64 87.333 64 96v832c0 8.667 3.167 16.167 9.5 22.5 6.333 6.333 13.833 9.5 22.5 9.5h64Zm320 0c8.667 0 16.167-3.167 22.5-9.5 6.333-6.333 9.5-13.833 9.5-22.5V96c0-8.667-3.167-16.167-9.5-22.5-6.333-6.333-13.833-9.5-22.5-9.5h-64c-8.667 0-16.167 3.167-22.5 9.5-6.333 6.333-9.5 13.833-9.5 22.5v832c0 8.667 3.167 16.167 9.5 22.5 6.333 6.333 13.833 9.5 22.5 9.5h64Zm160.5-658.5c0-22 6.417-41.333 19.25-58s29.75-28.167 50.75-34.5c12-3.667 24.333-7.5 37-11.5 12.667-4 25.333-6 38-6 11 0 21.583 1.917 31.75 5.75 10.167 3.833 19.333 9.083 27.5 15.75 8.167 6.667 15.167 14.583 21 23.75s10.083 19.083 12.75 29.75l143 622.5c1.67 7.667 2.5 14.833 2.5 21.5 0 22.333-6.58 41.917-19.75 58.75-13.167 16.833-30.417 28.25-51.75 34.25-14 4-28.417 8.33-43.25 13-14.833 4.67-29.75 7-44.75 7-11.333 0-22.167-1.92-32.5-5.75-10.333-3.83-19.667-9.08-28-15.75-8.333-6.667-15.417-14.75-21.25-24.25S772.833 958 770.5 947l-128-626.5c-1.333-5.667-2-12-2-19ZM960 911c0-1.667-.333-4.167-1-7.5l-143-623c-1.667-7-5.417-12.833-11.25-17.5s-12.417-7-19.75-7c-8.667 0-18.25 1.75-28.75 5.25s-20.083 6.583-28.75 9.25c-6.667 2-12.167 5.917-16.5 11.75s-6.5 12.25-6.5 19.25v3.25c0 1.167.167 2.25.5 3.25l128 626c1.667 7.667 5.417 13.833 11.25 18.5s12.583 7 20.25 7c4 0 9.167-.667 15.5-2s12.917-3 19.75-5 13.5-4 20-6l16.25-5c6.667-2 12.333-5.75 17-11.25s7-11.917 7-19.25Z"/>
  </g>
  <defs>
    <clipPath id="a">
      <path fill="#fff" d="M0 0h1024v1024H0z"/>
    </clipPath>
  </defs>
</svg>

<!-- Exported by Character Map UWP -->
<svg height="100%" viewBox="0 0 1024 1024" width="100%" xmlns="http://www.w3.org/2000/svg" xmlns:xlink="http://www.w3.org/1999/xlink">
  <path d="M96,1024C83,1024 70.6667,1021.5 59,1016.5C47.3333,1011.5 37.0833,1004.58 28.25,995.75C19.4167,986.917 12.5,976.667 7.5,965C2.5,953.333 0,941 0,928L0,96C0,83 2.5,70.6667 7.5,59C12.5,47.3334 19.4167,37.0834 28.25,28.25C37.0833,19.4167 47.3333,12.5 59,7.5C70.6667,2.5 83,0 96,0L160,0C173,0 185.333,2.5 197,7.5C208.667,12.5 218.917,19.4167 227.75,28.25C236.583,37.0834 243.5,47.3334 248.5,59C253.5,70.6667 256,83 256,96L256,928C256,941 253.5,953.333 248.5,965C243.5,976.667 236.583,986.917 227.75,995.75C218.917,1004.58 208.667,1011.5 197,1016.5C185.333,1021.5 173,1024 160,1024ZM416,1024C403,1024 390.667,1021.5 379,1016.5C367.333,1011.5 357.083,1004.58 348.25,995.75C339.417,986.917 332.5,976.667 327.5,965C322.5,953.333 320,941 320,928L320,96C320,83 322.5,70.6667 327.5,59C332.5,47.3334 339.417,37.0834 348.25,28.25C357.083,19.4167 367.333,12.5 379,7.5C390.667,2.5 403,0 416,0L480,0C493,0 505.333,2.5 517,7.5C528.667,12.5 538.917,19.4167 547.75,28.25C556.583,37.0834 563.5,47.3334 568.5,59C573.5,70.6667 576,83 576,96L576,928C576,941 573.5,953.333 568.5,965C563.5,976.667 556.583,986.917 547.75,995.75C538.917,1004.58 528.667,1011.5 517,1016.5C505.333,1021.5 493,1024 480,1024ZM160,960C168.667,960 176.167,956.833 182.5,950.5C188.833,944.167 192,936.667 192,928L192,96C192,87.3334 188.833,79.8334 182.5,73.5C176.167,67.1667 168.667,64.0001 160,64L96,64C87.3333,64.0001 79.8333,67.1667 73.5,73.5C67.1667,79.8334 64,87.3334 64,96L64,928C64,936.667 67.1667,944.167 73.5,950.5C79.8333,956.833 87.3333,960 96,960ZM480,960C488.667,960 496.167,956.833 502.5,950.5C508.833,944.167 512,936.667 512,928L512,96C512,87.3334 508.833,79.8334 502.5,73.5C496.167,67.1667 488.667,64.0001 480,64L416,64C407.333,64.0001 399.833,67.1667 393.5,73.5C387.167,79.8334 384,87.3334 384,96L384,928C384,936.667 387.167,944.167 393.5,950.5C399.833,956.833 407.333,960 416,960ZM640.5,301.5C640.5,279.5 646.917,260.167 659.75,243.5C672.583,226.833 689.5,215.333 710.5,209C722.5,205.333 734.833,201.5 747.5,197.5C760.167,193.5 772.833,191.5 785.5,191.5C796.5,191.5 807.083,193.417 817.25,197.25C827.417,201.083 836.583,206.333 844.75,213C852.917,219.667 859.917,227.583 865.75,236.75C871.583,245.917 875.833,255.833 878.5,266.5L1021.5,889C1023.17,896.667 1024,903.833 1024,910.5C1024,932.833 1017.42,952.417 1004.25,969.25C991.083,986.083 973.833,997.5 952.5,1003.5C938.5,1007.5 924.083,1011.83 909.25,1016.5C894.417,1021.17 879.5,1023.5 864.5,1023.5C853.167,1023.5 842.333,1021.58 832,1017.75C821.667,1013.92 812.333,1008.67 804,1002C795.667,995.333 788.583,987.25 782.75,977.75C776.917,968.25 772.833,958 770.5,947L642.5,320.5C641.167,314.833 640.5,308.5 640.5,301.5ZM960,911C960,909.333 959.667,906.833 959,903.5L816,280.5C814.333,273.5 810.583,267.667 804.75,263C798.917,258.333 792.333,256 785,256C776.333,256 766.75,257.75 756.25,261.25C745.75,264.75 736.167,267.833 727.5,270.5C720.833,272.5 715.333,276.417 711,282.25C706.667,288.083 704.5,294.5 704.5,301.5C704.5,302.5 704.5,303.583 704.5,304.75C704.5,305.917 704.667,307 705,308L833,934C834.667,941.667 838.417,947.833 844.25,952.5C850.083,957.167 856.833,959.5 864.5,959.5C868.5,959.5 873.667,958.833 880,957.5C886.333,956.167 892.917,954.5 899.75,952.5C906.583,950.5 913.25,948.5 919.75,946.5C926.25,944.5 931.667,942.833 936,941.5C942.667,939.5 948.333,935.75 953,930.25C957.667,924.75 960,918.333 960,911Z" fill="#FFFFFF" fill-opacity="1">
  </path>
</svg>
